X:1
T:The limpid stream
T:the limpid stream
T:Friedrich Burgmüller
C:Friedrich Burgmüller
%%score { 1 | 2 }
L:1/8
Q:1/4=144
M:4/4
K:G
V:1 treble nm="Piano" snm="Pno."
V:2 bass 
V:1
"^Allegro" (3!1!B,!5!G!2!D (3B,GD (3!1!C!5!A!2!D (3!1!A,!4!F!2!D | %1
 (3B,GD!<(! (3B,GD (3!1!D!5!A!3!D (3!1!G!5!d!3!B | (3!1!Bgd (3Bgd (3c!<)!ad (3A!4!f!2!d | %3
 (3Bgd (3B!5!ed (3!1!G!5!cB (3!1!D!5!AG | (3!1!B,!5!G!2!D (3B,GD (3!1!C!5!A!2!D (3!1!A,!4!F!2!D | %5
 (3B,GD (3B,GD (3!1!DAD (3!1!GdB | (3(Bgd (3Bgd (3cad (3Afd | %7
 (3!1!B!2!d!5!g (3!1!g!2!b!3!d' .e'2) z2!fine! | (3z !4!fA (3z fA (3z !3!eA (3z fA | %9
 (3z (!5!gA) (3z (!4!eA) (3z (!2!^cA) (3z (!2!dA) | (3z (!3!eA) (3z (!4!fA) (3z (gA) (3z (!3!eA) | %11
 (3z (!4!fA) (3z (!3!eA) (3z (!2!dA) (3z (!3!eA) |!p! (3z (!4!fA) (3z (fA) (3z (!3!eA) (3z (fA) | %13
 (3z (!4!gA) (3z (eA) (3z (!3!^cA) (3z (dA) | (3z (!4!eA) (3z (fA) (3z (!3!gA) (3z (^cA) | %15
 (3!4!ded (3cB!1!A (3!4!GFE (3!1!D!3!^C!2!=C!D.C.! |] %16
V:2
 (G,,2 D,2 G,,2 D,2 | G,,2 D,2 G,,2 D,2) | (G,,2 D,2 G,,2 D,2 | G,,2 D,2 G,,2 D,2) | %4
 (G,,2 D,2 G,,2 D,2 | G,,2 D,2 G,,2 D,2) | G,,2 D,2 G,,2 D,2 | G,,2 D,2 .G,,2 z2 | %8
 !2!D2 !5!A,2 !3!^C2 D2 | E2 ^C2 A,2 B,2 | ^C2 D2 E2 C2 | !2!D2 !1!G2 !2!F2 !1!E2 | %12
 !2!D2 !5!A,2 !3!^C2 D2 | E2 ^C2 A,2 B,2 | ^C2 D2 !1!E2 !2!G2 | !3!F2 z2 z4 |] %16

